X:1
T:Title
%%score ( 1 2 ) { 3 | 4 }
L:1/8
Q:1/4=83
M:3/4
K:Db
V:1 treble nm="Grand Piano, Soprano"
V:2 treble 
V:3 treble nm="Choir Pad, Some Day, Eben E. Rexford"
V:4 bass 
V:1
 [FA][F=G] [FA] [Fd]3 | [Fc][Ac] [GB] [FA]3 | [FA][EG] [DF] [EG]3 | [GB][FA] [CE] [DF]3 | %4
w: By~Frank~Marion~Davis * * *||||
 [FA][F=G] [FA] [Fd]3 | [Af][Ge] [Fd] [GB]3 | [Bd][Ac] [GB] [GA]3 | [GA][GB] [Gc] [Fd]3 | %8
w: ||||
 AA [EA]A- [FA]2 | d[Ac] [GB]A- [FA-][FA] | [FA][EG] [DF] [EG]3 | [GB][FA] [EG] [DF]3 | %12
w: ||||
 [FA][F=G] [FA] [Fd]3 | [Af][Ae] [Ad] [GB]3 | [Bd][Ac] [GB] [GA]3 | [GA][GB] [Gc] [Fd]3- | %16
w: ||||
 [Fd]4 z2 |] %17
w: |
V:2
 x6 | x6 | x6 | x6 | x6 | x6 | x6 | x6 | F2 z F z F- | F z z F z2 | x6 | x6 | x6 | x6 | x6 | x6 | %16
 x6 |] %17
V:3
 z2 z D DD | z D z D DD | z D z[K:bass] A, A,A, | z A, z A, A,A, | z A, z[K:treble] D DD | %5
 DC DD DD | z D z E EE | z E z D DD | z2 CD CD | A,A, CD DD | z2 A,C CC- | CD CD A,A, | DD D A,3 | %13
 DC D D3 | DD D C3 | CC A, A,3- | A,4 z2 |] %17
V:4
 z2 z [D,A,] [D,A,][D,A,] | z [D,A,] z [D,A,] [D,A,][D,A,] | z [D,A,] z [A,,E,] [A,,E,][A,,E,] | %3
 z [A,,E,] z D, D,D, | z D, z [D,A,] [D,A,][D,A,] | [D,A,]E, F,G, G,G, | z G, z [A,C] [A,C][A,C] | %7
 z [A,C] z [D,A,] [D,A,][D,A,] | z2 A,A, A,A, | z A,,2 D, D,D, | z2 z A, A,A,- | A, A,2 D, D,D, | %12
 D,D, D, D,3 | D,E, F, G,3 | G,G, G, A,3 | A,A,, A,, D,3- | D,4 z2 |] %17

